src/icons/solid/communication/wrap-up-system.svg

<svg width="24" height="24" viewBox="0 0 24 24" fill="none" xmlns="http://www.w3.org/2000/svg">
<g clip-path="url(#clip0_4608_463)">
<path fill-rule="evenodd" clip-rule="evenodd" d="M18.5029 12.0205C18.8013 12.0213 19.0911 12.1183 19.3301 12.2969C19.5686 12.4752 19.7439 12.7255 19.8291 13.0107L20.123 13.9775C20.135 14.017 20.1626 14.0516 20.1982 14.0723C20.2337 14.0927 20.2755 14.0989 20.3154 14.0898L21.2969 13.8623H21.2998C21.5902 13.7969 21.8944 13.8257 22.167 13.9453C22.4393 14.0649 22.6662 14.2687 22.8145 14.5264C22.9628 14.7843 23.025 15.0834 22.9912 15.3789C22.9574 15.6744 22.8296 15.9512 22.627 16.1689L21.9395 16.9102C21.9108 16.941 21.8945 16.9814 21.8945 17.0234C21.8946 17.0655 21.9108 17.1059 21.9395 17.1367L22.627 17.8779C22.8295 18.0958 22.9575 18.3725 22.9912 18.668C23.0249 18.9634 22.9627 19.2617 22.8145 19.5195C22.6661 19.7774 22.4395 19.982 22.167 20.1016C21.8944 20.2212 21.5902 20.25 21.2998 20.1846L21.2969 20.1836L20.3164 19.957C20.2763 19.9479 20.2338 19.9541 20.1982 19.9746C20.1626 19.9953 20.136 20.0289 20.124 20.0684L20.123 20.0693L19.8291 21.0312V21.0332C19.7432 21.3183 19.5672 21.5683 19.3281 21.7461C19.0887 21.9241 18.7984 22.0205 18.5 22.0205C18.2016 22.0205 17.9113 21.9241 17.6719 21.7461C17.4327 21.5682 17.2567 21.3175 17.1709 21.0322L16.876 20.0645C16.864 20.025 16.8374 19.9914 16.8018 19.9707C16.7662 19.9502 16.7246 19.9441 16.6846 19.9531L15.7031 20.1797L15.7002 20.1807C15.4098 20.2461 15.1056 20.2163 14.833 20.0967C14.5607 19.9771 14.3338 19.7734 14.1855 19.5156C14.0373 19.2578 13.9751 18.9595 14.0088 18.6641C14.0425 18.3686 14.1705 18.0918 14.373 17.874L15.0605 17.1328C15.0892 17.102 15.1054 17.0616 15.1055 17.0195C15.1055 16.9775 15.0892 16.9371 15.0605 16.9062L14.373 16.165C14.1706 15.9473 14.0426 15.6703 14.0088 15.375C13.975 15.0794 14.0372 14.7804 14.1855 14.5225C14.3338 14.2647 14.5606 14.061 14.833 13.9414C15.1056 13.8218 15.4098 13.793 15.7002 13.8584H15.7031L16.6836 14.0859C16.7235 14.095 16.7663 14.0888 16.8018 14.0684C16.8374 14.0477 16.864 14.0139 16.876 13.9746L17.1709 13.0059C17.2573 12.7205 17.4341 12.4704 17.6738 12.293C17.9137 12.1154 18.2045 12.0198 18.5029 12.0205ZM18.5 15.7441C17.7953 15.7441 17.2236 16.3158 17.2236 17.0205C17.2238 17.7251 17.7954 18.2959 18.5 18.2959C19.2045 18.2958 19.7753 17.725 19.7754 17.0205C19.7754 16.3159 19.2046 15.7442 18.5 15.7441Z" fill="#3C3B44"/>
<path d="M1.70215 5C2.08991 5.00001 2.4043 5.31438 2.4043 5.70215V18.8086C2.40425 19.1963 2.08989 19.5107 1.70215 19.5107C1.3144 19.5107 1.00004 19.1963 1 18.8086V5.70215C1 5.31437 1.31437 5 1.70215 5Z" fill="#3C3B44"/>
<path d="M11.6309 11.6973C11.9352 11.4573 12.377 11.5093 12.6172 11.8135C12.8572 12.1179 12.8053 12.5597 12.501 12.7998L10.3369 14.5059L11.9688 14.5068C11.9772 14.5065 11.9857 14.5059 11.9941 14.5059C11.9941 14.5059 13.0054 14.5067 13.0059 15.1973C13.0059 15.881 12.0284 15.9096 12.0078 15.9102L10.4062 15.9092L12.457 17.2822C12.7791 17.498 12.8651 17.9347 12.6494 18.2568C12.4336 18.5787 11.9978 18.6646 11.6758 18.4492L7.82324 15.8691C7.63683 15.7441 7.52142 15.5378 7.5127 15.3135C7.50398 15.089 7.60293 14.8735 7.7793 14.7344L11.6309 11.6973Z" fill="#3C3B44"/>
<path d="M22.2979 5C22.6856 5 23 5.31437 23 5.70215V12.2979C23 12.6856 22.6856 13 22.2979 13C21.9101 13 21.5957 12.6856 21.5957 12.2979V5.70215C21.5957 5.31438 21.9101 5.00001 22.2979 5Z" fill="#3C3B44"/>
<path d="M14.5273 5.92969C17.2555 5.92969 19.1466 8.05721 19.3936 10.1689C19.395 10.1821 19.4832 11.0038 18.7656 11.0039C18.0797 11.0039 17.9906 10.1819 17.9893 10.1689C17.7265 8.80093 16.48 7.33398 14.5273 7.33398H5.16602C4.77824 7.33398 4.46387 7.01961 4.46387 6.63184C4.46392 6.24411 4.77828 5.92969 5.16602 5.92969H14.5273Z" fill="#3C3B44"/>
</g>
<defs>
<clipPath id="clip0_4608_463">
<rect width="24" height="24" fill="white"/>
</clipPath>
</defs>
</svg>

<svg xmlns="http://www.w3.org/2000/svg" width="24" height="24" fill="none" viewBox="0 0 24 24"><g fill="currentColor" clip-path="url(#a)"><path fill-rule="evenodd" d="M18.503 12.02a1.39 1.39 0 0 1 1.326.99l.294.967a.163.163 0 0 0 .192.112l.982-.227h.003a1.4 1.4 0 0 1 1.514.664 1.39 1.39 0 0 1-.187 1.643l-.687.741a.166.166 0 0 0 0 .227l.687.74a1.393 1.393 0 0 1-1.327 2.308l-.003-.001-.98-.227a.164.164 0 0 0-.192.111l-.002.001-.294.962v.002a1.388 1.388 0 0 1-2.658 0l-.295-.969a.163.163 0 0 0-.191-.111l-.982.227H15.7a1.396 1.396 0 0 1-1.691-1.516 1.4 1.4 0 0 1 .364-.79l.688-.741a.17.17 0 0 0 .044-.113.17.17 0 0 0-.045-.114l-.687-.741a1.394 1.394 0 0 1 .46-2.224c.273-.12.577-.148.867-.083h.003l.98.228a.164.164 0 0 0 .192-.111l.296-.97a1.39 1.39 0 0 1 1.332-.985m-.003 3.724a1.277 1.277 0 1 0 0 2.554 1.277 1.277 0 0 0 0-2.554" clip-rule="evenodd"/><path d="M1.702 5c.388 0 .702.314.702.702V18.81a.702.702 0 0 1-1.404 0V5.702C1 5.314 1.314 5 1.702 5m9.928 6.697a.703.703 0 0 1 .871 1.103l-2.164 1.706h1.657s1.011 0 1.012.691c0 .684-.978.713-.998.713h-1.602l2.051 1.372a.703.703 0 0 1-.781 1.167l-3.853-2.58a.702.702 0 0 1-.044-1.135zM22.298 5c.388 0 .702.314.702.702v6.596a.702.702 0 0 1-1.404 0V5.702c0-.388.314-.702.702-.702m-7.771.93c2.729 0 4.62 2.127 4.867 4.239.001.013.09.835-.628.835-.686 0-.775-.822-.777-.835-.262-1.368-1.509-2.835-3.462-2.835H5.166a.702.702 0 0 1 0-1.404z"/></g><defs><clipPath id="a"><path fill="currentColor" d="M0 0h24v24H0z"/></clipPath></defs></svg>
